static/logos/ibm-wordmark-white.svg

<svg width="161" height="64" viewBox="0 0 161 64" fill="none" xmlns="http://www.w3.org/2000/svg">
<g clip-path="url(#clip0_1204_216)">
<mask id="mask0_1204_216" style="mask-type:luminance" maskUnits="userSpaceOnUse" x="0" y="0" width="161" height="64">
<path d="M0.5 0H160.5V64H0.5V0Z" fill="white"/>
</mask>
<g mask="url(#mask0_1204_216)">
<path d="M2.15112 0.65918V4.94718H32.6471V0.65918H2.15112ZM36.9735 0.65918V4.94718H80.4423C80.4423 4.94718 76.0007 0.65918 70.1223 0.65918H36.9735ZM88.9671 0.65918V4.94718H115.262L113.703 0.65918H88.9671ZM134.119 0.65918L132.558 4.94718H158.618V0.65918H134.119ZM2.15112 9.00158V13.2896H32.6471V9.00158H2.15112ZM36.9735 9.00478V13.2864H85.4823C85.4823 13.2864 84.9159 9.98718 83.9271 9.00478H36.9735ZM88.9671 9.00478V13.2864H118.167L116.724 9.00478H88.9671ZM130.996 9.00478L129.553 13.2864H158.615V9.00478H130.996ZM10.9159 17.344V21.632H24.1255V17.3408L10.9159 17.344ZM45.7415 17.344V21.632H58.9511V17.3408L45.7415 17.344ZM71.7991 17.344V21.632H85.0087C85.0087 21.632 85.8503 19.36 85.8503 17.3376H71.8023L71.7991 17.344ZM97.7351 17.344V21.632H121.14L119.578 17.3376H97.7383L97.7351 17.344ZM128.122 17.344L126.554 21.6384H150.09V17.3408L128.122 17.344ZM10.9191 25.6864V29.9744H24.1287V25.6864H10.9191ZM45.7415 25.6864V29.9744H79.4823C79.4823 29.9744 82.3015 27.7728 83.2007 25.6864H45.7415ZM97.7351 25.6864V29.9744H110.945V27.584L111.786 29.9712H135.985L136.887 27.584V29.9712H150.097V25.6832H125.297L123.978 29.3152L122.66 25.6832L97.7351 25.6864ZM10.9159 34.0256V38.3136H24.1255V34.0256H10.9159ZM45.7415 34.0256V38.3136H83.2007C82.2983 36.2336 79.4791 34.0256 79.4791 34.0256H45.7415ZM97.7351 34.0256V38.3136H110.945V34.0256H97.7351ZM113.345 34.0256L114.945 38.3136H133.089L134.609 34.0256H113.345ZM136.881 34.0256V38.3136H150.09V34.0256H136.881ZM10.9191 42.368V46.656H24.1287V42.368H10.9191ZM45.7447 42.368V46.656H58.9543V42.368H45.7447ZM71.8023 42.368V46.656H85.8503C85.8503 44.6336 85.0119 42.368 85.0119 42.368H71.8023ZM97.7383 42.368V46.656H110.951V42.368H97.7383ZM116.35 42.368L117.895 46.656H130.055L131.617 42.368H116.35ZM136.884 42.368V46.656H150.094V42.368H136.884ZM2.39432 50.7072V55.0016H32.8935V50.7072H2.39432ZM36.9799 50.7072V55.0016H83.9367C84.9223 54.016 85.4887 50.7072 85.4887 50.7072H36.9799ZM89.2103 50.7072V55.0016H110.942V50.7072H89.2103ZM119.354 50.7072L120.945 55.0016H127.13L128.625 50.7072H119.354ZM136.884 50.7072V55.0016H158.858V50.7072H136.884ZM2.39432 59.0528V63.3408H32.8935V59.0528H2.39432ZM36.9799 59.0528V63.3312H70.1223C76.0007 63.3312 80.4423 59.0528 80.4423 59.0528H36.9799ZM89.2103 59.0528V63.3408H110.942V59.0528H89.2103ZM122.372 59.0528L123.902 63.328L124.167 63.3344L125.719 59.0528H122.372ZM136.887 59.0528V63.3408H158.862V59.0528H136.887Z" fill="white"/>
</g>
</g>
<defs>
<clipPath id="clip0_1204_216">
<rect width="160" height="64" fill="white" transform="translate(0.5)"/>
</clipPath>
</defs>
</svg>

<svg xmlns="http://www.w3.org/2000/svg" width="161" height="64" fill="none"><g clip-path="url(#a)"><mask id="b" width="161" height="64" x="0" y="0" maskUnits="userSpaceOnUse" style="mask-type:luminance"><path fill="#fff" d="M.5 0h160v64H.5z"/></mask><g mask="url(#b)"><path fill="#fff" d="M2.151.66v4.287h30.496V.66zm34.823 0v4.287h43.468S76.001.66 70.122.66zm51.993 0v4.287h26.295L113.703.66zm45.152 0-1.561 4.287h26.06V.66zM2.151 9.001v4.288h30.496V9.002zm34.823.003v4.281h48.508s-.566-3.299-1.555-4.281zm51.993 0v4.281h29.2l-1.443-4.281zm42.029 0-1.443 4.281h29.062V9.005zm-120.08 8.339v4.288h13.21v-4.291zm34.826 0v4.288h13.21v-4.291zm26.057 0v4.288h13.21s.841-2.272.841-4.294H71.802zm25.936 0v4.288h23.405l-1.562-4.294h-21.84zm30.387 0-1.568 4.294h23.536v-4.297zM10.919 25.686v4.288h13.21v-4.288zm34.823 0v4.288h33.74s2.82-2.201 3.719-4.288zm51.993 0v4.288h13.21v-2.39l.841 2.387h24.199l.902-2.387v2.387h13.21v-4.288h-24.8l-1.319 3.632-1.318-3.632zm-86.82 8.34v4.288h13.21v-4.288zm34.827 0v4.288H83.2c-.903-2.08-3.722-4.288-3.722-4.288zm51.993 0v4.288h13.21v-4.288zm15.61 0 1.6 4.288h18.144l1.52-4.288zm23.536 0v4.288h13.209v-4.288zM10.919 42.368v4.288h13.21v-4.288zm34.826 0v4.288h13.21v-4.288zm26.057 0v4.288H85.85c0-2.022-.838-4.288-.838-4.288zm25.936 0v4.288h13.213v-4.288zm18.612 0 1.545 4.288h12.16l1.562-4.288zm20.534 0v4.288h13.21v-4.288zm-134.49 8.34v4.294h30.5v-4.295zm34.586 0v4.294h46.957c.985-.986 1.552-4.295 1.552-4.295zm52.23 0v4.294h21.732v-4.295zm30.144 0 1.591 4.294h6.185l1.495-4.295zm17.53 0v4.294h21.974v-4.295zM2.394 59.052v4.288h30.5v-4.288zm34.586 0v4.278h33.142c5.879 0 10.32-4.278 10.32-4.278zm52.23 0v4.288h21.732v-4.288zm33.162 0 1.53 4.275.265.006 1.552-4.281zm14.515 0v4.288h21.975v-4.288z"/></g></g><defs><clipPath id="a"><path fill="#fff" d="M.5 0h160v64H.5z"/></clipPath></defs></svg>
